images/line-footer.svg

<svg width="547" height="231" viewBox="0 0 547 231" fill="none" xmlns="http://www.w3.org/2000/svg">
<g id="Group 22">
<path id="Path 3" fill-rule="evenodd" clip-rule="evenodd" d="M205.361 197.675C281.064 221.368 358.904 260.887 438.596 188.705C518.289 116.523 568.39 53.2913 536.036 -28.5221C503.682 -110.336 371.614 -59.3772 333.242 -132.499C294.869 -205.621 379.183 -271.984 342.833 -337.062C306.484 -402.14 278.534 -443.849 161.718 -402.471C44.9022 -361.092 55.6727 -255.807 -33.1601 -194.153C-121.993 -132.499 -218.104 -40.2003 -86.2063 124.494C45.6915 289.188 129.659 173.981 205.361 197.675Z" stroke="#E4E4E4"/>
<path id="Path 3 Copy" fill-rule="evenodd" clip-rule="evenodd" d="M195.895 159.751C257.478 178.991 320.8 211.081 385.629 152.468C450.457 93.8543 491.214 42.5093 464.895 -23.9248C438.575 -90.3588 331.14 -48.9796 299.924 -108.356C268.708 -167.732 337.296 -221.621 307.726 -274.465C278.157 -327.31 255.42 -361.178 160.392 -327.578C65.3638 -293.978 74.1254 -208.484 1.86115 -158.42C-70.4031 -108.356 -148.588 -33.4076 -41.2912 100.327C66.0059 234.062 134.312 140.511 195.895 159.751Z" stroke="#E4E4E4"/>
<path id="Path 3 Copy 2" fill-rule="evenodd" clip-rule="evenodd" d="M178.188 134.583C228.15 150.281 279.522 176.465 332.117 128.64C384.711 80.8147 417.777 38.9203 396.424 -15.2859C375.071 -69.492 287.91 -35.7291 262.586 -84.1764C237.261 -132.624 292.905 -176.594 268.916 -219.712C244.926 -262.829 226.48 -290.464 149.385 -263.048C72.2899 -235.633 79.398 -165.875 20.771 -125.026C-37.8561 -84.1764 -101.287 -23.0233 -14.238 86.0961C72.8108 195.215 128.227 118.884 178.188 134.583Z" stroke="#E4E4E4"/>
<path id="Path 3 Copy 5" fill-rule="evenodd" clip-rule="evenodd" d="M159.684 103.816C199.979 116.412 241.412 137.419 283.831 99.0481C326.25 60.6769 352.918 27.0639 335.696 -16.427C318.475 -59.918 248.178 -32.8292 227.753 -71.6997C207.328 -110.57 252.206 -145.848 232.858 -180.443C213.51 -215.038 198.633 -237.21 136.454 -215.213C74.2751 -193.217 80.008 -137.248 32.724 -104.474C-14.56 -71.6997 -65.7182 -22.635 4.48849 64.9143C74.6952 152.464 119.389 91.221 159.684 103.816Z" stroke="#E4E4E4"/>
<path id="Path 3 Copy 4" fill-rule="evenodd" clip-rule="evenodd" d="M154.917 83.9542C187.827 94.2494 221.666 111.421 256.31 80.0567C290.953 48.6924 312.734 21.2175 298.668 -14.3316C284.603 -49.8808 227.191 -27.7386 210.51 -59.511C193.828 -91.2835 230.481 -120.12 214.679 -148.397C198.877 -176.674 186.727 -194.797 135.945 -176.818C85.1627 -158.838 89.8448 -113.09 51.2274 -86.3006C12.61 -59.511 -29.1715 -19.406 28.1671 52.156C85.5058 123.718 122.008 73.6589 154.917 83.9542Z" stroke="#E4E4E4"/>
<path id="Path 3 Copy 3" fill-rule="evenodd" clip-rule="evenodd" d="M145.775 69.594C172.493 77.9543 199.966 91.8987 228.093 66.4291C256.22 40.9595 273.903 18.6482 262.483 -10.2197C251.064 -39.0876 204.452 -21.1069 190.909 -46.9079C177.365 -72.7089 207.123 -96.1255 194.294 -119.088C181.465 -142.051 171.6 -156.768 130.371 -142.168C89.142 -127.567 92.9433 -90.4171 61.5906 -68.6625C30.2378 -46.9079 -3.68378 -14.3403 42.8684 43.7721C89.4205 101.884 119.056 61.2336 145.775 69.594Z" stroke="#E4E4E4"/>
</g>
</svg>

<svg xmlns="http://www.w3.org/2000/svg" width="547" height="231" fill="none"><g stroke="#E4E4E4" clip-rule="evenodd"><path d="M205.361 197.675c75.703 23.693 153.543 63.212 233.235-8.97 79.693-72.182 129.794-135.414 97.44-217.227-32.354-81.814-164.422-30.855-202.794-103.977-38.373-73.122 45.941-139.485 9.591-204.563-36.349-65.078-64.299-106.787-181.115-65.409C44.902-361.092 55.673-255.807-33.16-194.153-121.993-132.499-218.104-40.2-86.206 124.494 45.69 289.188 129.659 173.981 205.36 197.675Z"/><path d="M195.895 159.751c61.583 19.24 124.905 51.33 189.734-7.283 64.828-58.614 105.585-109.959 79.266-176.393-26.32-66.434-133.755-25.055-164.971-84.431-31.216-59.376 37.372-113.265 7.802-166.109-29.569-52.845-52.306-86.713-147.334-53.113-95.028 33.6-86.267 119.094-158.53 169.158-72.265 50.064-150.45 125.012-43.153 258.747s175.603 40.184 237.186 59.424Z"/><path d="M178.188 134.583c49.962 15.698 101.334 41.882 153.929-5.943 52.594-47.825 85.66-89.72 64.307-143.926-21.353-54.206-108.514-20.443-133.838-68.89-25.325-48.448 30.319-92.418 6.33-135.536-23.99-43.117-42.436-70.752-119.531-43.336-77.095 27.415-69.987 97.173-128.614 138.022-58.627 40.85-122.058 102.003-35.009 211.122 87.049 109.119 142.465 32.788 192.426 48.487Z"/><path d="M159.684 103.816c40.295 12.596 81.728 33.603 124.147-4.768 42.419-38.371 69.087-71.984 51.865-115.475-17.221-43.491-87.518-16.402-107.943-55.273-20.425-38.87 24.453-74.148 5.105-108.743s-34.225-56.767-96.404-34.77c-62.179 21.996-56.446 77.965-103.73 110.739C-14.56-71.7-65.718-22.635 4.488 64.914c70.207 87.55 114.901 26.307 155.196 38.902Z"/><path d="M154.917 83.954c32.91 10.295 66.749 27.467 101.393-3.897 34.643-31.365 56.424-58.84 42.358-94.389-14.065-35.549-71.477-13.407-88.158-45.179-16.682-31.773 19.971-60.609 4.169-88.886-15.802-28.277-27.952-46.4-78.734-28.421-50.782 17.98-46.1 63.728-84.718 90.517C12.61-59.51-29.17-19.406 28.167 52.156c57.339 71.562 93.841 21.503 126.75 31.798Z"/><path d="M145.775 69.594c26.718 8.36 54.191 22.305 82.318-3.165 28.127-25.47 45.81-47.78 34.39-76.649-11.419-28.868-58.031-10.887-71.574-36.688-13.544-25.8 16.214-49.218 3.385-72.18-12.829-22.963-22.694-37.68-63.923-23.08-41.229 14.601-37.428 51.75-68.78 73.506C30.238-46.908-3.684-14.34 42.868 43.772c46.553 58.112 76.188 17.462 102.907 25.822Z"/></g></svg>
